svg/brand/firefox.svg

<svg width="16" height="16" viewBox="0 0 16 16" fill="none" xmlns="http://www.w3.org/2000/svg">
<path fill-rule="evenodd" clip-rule="evenodd" d="M14.4186 3.57472L14.2257 2.80096L14.3376 2.76597C15.1965 3.82464 15.2665 5.16522 15.5154 6.4938C15.5634 6.28486 15.6024 6.11292 15.6414 5.94197H15.7074C15.7394 6.01156 15.7616 6.08523 15.7734 6.1609C15.898 8.43993 15.3204 10.7023 14.1187 12.6429C13.5812 13.4521 12.8779 14.1379 12.0553 14.6549C11.2328 15.1719 10.3098 15.5084 9.34748 15.6419C7.71138 15.9777 6.00953 15.7386 4.52929 14.9651C3.49591 14.3983 2.6018 13.6084 1.91192 12.6528C1.22203 11.6972 0.753708 10.6 0.540966 9.44087C0.532967 9.40488 0.51697 9.37089 0.491974 9.29891L0.353998 9.51484V7.39651L0.210022 7.4475C0.237375 7.20248 0.283164 6.95986 0.346999 6.72173C0.585958 6.04094 0.857913 5.37115 1.10387 4.69137C1.16586 4.50788 1.19629 4.31521 1.19386 4.12155C1.16437 3.42835 1.33106 2.7409 1.67477 2.13817C1.78127 1.98651 1.8975 1.84192 2.02272 1.70531L2.40365 2.71999C3.17121 1.84091 4.13755 1.15771 5.22233 0.727201C6.30712 0.296689 7.47901 0.131295 8.6406 0.244769C9.77978 0.376995 10.8799 0.740573 11.8735 1.31319C12.8671 1.88581 13.7332 2.6554 14.4186 3.57472V3.57472ZM11.6121 1.64333C10.2005 0.76533 8.51868 0.4283 6.87776 0.694611C5.23683 0.960921 3.74793 1.81254 2.6866 3.09187C2.86279 3.12516 3.04071 3.14852 3.21951 3.16185C3.61945 3.16885 4.02738 3.17085 4.43131 3.15185C4.57855 3.15283 4.72235 3.10735 4.84224 3.02189C5.30694 2.63365 5.8739 2.38787 6.47496 2.31412C6.57606 2.31348 6.67684 2.32557 6.77491 2.3501C6.50774 2.60766 6.26042 2.88503 6.03504 3.17984C5.55312 3.91761 5.88406 4.54741 6.74692 4.5794C6.96188 4.5884 7.17884 4.5794 7.39381 4.5794C7.84373 4.5894 7.97471 4.80033 7.76275 5.2142C7.6816 5.34887 7.57166 5.46392 7.4408 5.5511C7.16885 5.75103 6.88589 5.93897 6.60094 6.11992C6.5014 6.18016 6.4247 6.27177 6.38289 6.38034C6.34109 6.48891 6.33654 6.60829 6.36998 6.71973C6.41197 6.96765 6.41797 7.21957 6.44597 7.54247C6.259 7.48049 6.14602 7.4515 6.03904 7.40451C5.92442 7.33405 5.78728 7.30981 5.65545 7.33673C5.52362 7.36365 5.40697 7.43971 5.32916 7.54946C5.24418 7.66548 5.19837 7.80554 5.19837 7.94934C5.19837 8.09314 5.24418 8.2332 5.32916 8.34921C5.52727 8.65331 5.81346 8.88974 6.14951 9.02693C6.48556 9.16412 6.85547 9.19553 7.20984 9.11697C7.51979 9.025 7.80974 8.87505 8.12469 8.79307C8.38671 8.71478 8.66612 8.71623 8.92732 8.79723C9.18852 8.87823 9.41971 9.03512 9.59144 9.24793C9.8094 9.49585 9.71342 9.82375 9.41947 9.82275C9.0387 9.8752 8.67986 10.0319 8.38264 10.2756C8.01927 10.4805 7.63729 10.6506 7.24183 10.7834C6.92703 10.8548 6.60648 10.898 6.284 10.9124C6.71576 11.2753 7.21674 11.5468 7.75657 11.7104C8.2964 11.874 8.86383 11.9263 9.42447 11.8641C9.95504 11.7001 10.4479 11.4327 10.8747 11.0774C11.3014 10.7221 11.6537 10.2858 11.911 9.79376L12.011 9.85374C11.9577 10.1736 11.904 10.4932 11.8501 10.8124C12.4219 9.85043 12.6408 8.71929 12.469 7.61344L12.5559 7.57646L13.0449 8.01232C13.2584 7.05857 13.2663 6.07025 13.0679 5.11323C13.137 5.1287 13.2041 5.15219 13.2678 5.18321C13.3798 5.27218 13.4848 5.36915 13.6278 5.49411C13.3846 4.77022 12.9537 4.12384 12.3789 3.62099C11.8041 3.11815 11.1062 2.77687 10.3563 2.63202L10.4043 2.52505L11.6631 2.29212L11.6731 2.19215L9.77341 1.61534C10.378 1.46215 11.0124 1.47181 11.6121 1.64333V1.64333Z" fill="black"/>
</svg>

<svg id="Layer_1" data-name="Layer 1" xmlns="http://www.w3.org/2000/svg" viewBox="0 0 16 16"><title>firefox</title><path d="M14.417,3.583l-.193-.774.112-.035c.859,1.059.929,2.4,1.178,3.729.048-.209.087-.381.126-.552l.066,0a.831.831,0,0,1,.066.219,11.16,11.16,0,0,1-1.655,6.484,6.861,6.861,0,0,1-4.772,3,7.255,7.255,0,0,1-4.819-.677A7.937,7.937,0,0,1,.537,9.451c-.008-.036-.024-.07-.049-.142L.35,9.525V7.406l-.144.051a4.907,4.907,0,0,1,.137-.726C.582,6.05.854,5.38,1.1,4.7a1.714,1.714,0,0,0,.09-.57,3.689,3.689,0,0,1,.481-1.984,4.286,4.286,0,0,1,.348-.433L2.4,2.728A7.334,7.334,0,0,1,8.638.252,8.419,8.419,0,0,1,14.417,3.583ZM11.61,1.651A6.878,6.878,0,0,0,2.683,3.1a4.788,4.788,0,0,0,.533.07c.4.007.808.009,1.212-.01a.7.7,0,0,0,.411-.13,3.144,3.144,0,0,1,1.633-.708,1.205,1.205,0,0,1,.3.036,7.371,7.371,0,0,0-.74.83c-.482.738-.151,1.368.712,1.4.215.009.432,0,.647,0,.45.01.581.221.369.635a1.066,1.066,0,0,1-.322.337c-.272.2-.555.388-.84.569a.525.525,0,0,0-.231.6c.042.248.048.5.076.823-.187-.062-.3-.091-.407-.138a.53.53,0,0,0-.71.145.677.677,0,0,0,0,.8,1.784,1.784,0,0,0,1.881.768c.31-.092.6-.242.915-.324a1.378,1.378,0,0,1,1.467.455c.218.248.122.576-.172.575a2.084,2.084,0,0,0-1.037.453,6.606,6.606,0,0,1-1.141.508,5.425,5.425,0,0,1-.958.129,4.167,4.167,0,0,0,3.141.952,4.21,4.21,0,0,0,2.487-2.071l.1.06q-.08.48-.161.959a4.816,4.816,0,0,0,.619-3.2l.087-.037.489.436a6.88,6.88,0,0,0,.023-2.9.911.911,0,0,1,.2.07c.112.089.217.186.36.311A4.315,4.315,0,0,0,10.354,2.64l.048-.107L11.661,2.3l.01-.1-1.9-.577A3.532,3.532,0,0,1,11.61,1.651Z" fill-rule="evenodd"/></svg>
